X: 13898
T: Fox On The Town, The
R: reel
M: 4/4
K: Gmajor
gedg edBA|G2BG DGBd|gedg e2ef|g2fd efga|
beed edBA|G2Bd edBd|degb adfa|1 g2gf g3f:|2 g2gf g2||
|:ga|bee2 bage|dBB2 dega|bee2 bage|degb a2gf|
g3d egdB|GBdg edBd|degb adfa|g2gf g2:|

